svg/arrow_up_down_bold.svg

<svg xmlns="http://www.w3.org/2000/svg" viewBox="0 0 24 24"><path d="M10 8H6l6-6 6 6h-4v8h4l-6 6-6-6h4z"/></svg>

<?xml version="1.0" encoding="UTF-8"?><!DOCTYPE svg PUBLIC "-//W3C//DTD SVG 1.1//EN" "http://www.w3.org/Graphics/SVG/1.1/DTD/svg11.dtd"><svg xmlns="http://www.w3.org/2000/svg" xmlns:xlink="http://www.w3.org/1999/xlink" version="1.1" id="mdi-arrow-up-down-bold" width="24" height="24" viewBox="0 0 24 24"><path d="M10,8H6L12,2L18,8H14V16H18L12,22L6,16H10V8Z" /></svg>
